;FLAVOR:Marlin
;TIME:4122
;Filament used: 5.83974m
;Layer height: 0.15
;MINX:15.472
;MINY:5.384
;MINZ:0.2
;MAXX:288.465
;MAXY:287.861
;MAXZ:8
;Generated with Cura_SteamEngine 5.3.0
M140 S60
M105
M190 S60
M104 S200
M105
M109 S200
M82 ;absolute extrusion mode
G28 ;Home

M420 S1;
G92 E0 ;Reset Extruder
G1 Z2.0 F3000 ;Move Z Axis up
G1 X10.1 Y20 Z0.28 F5000.0 ;Move to start position
G1 X10.1 Y200.0 Z0.28 F1500.0 E15 ;Draw the first line
G1 X10.4 Y200.0 Z0.28 F5000.0 ;Move to side a little
G1 X10.4 Y20 Z0.28 F1500.0 E30 ;Draw the second line
G92 E0 ;Reset Extruder
G1 Z2.0 F3000 ;Move Z Axis up
G92 E0
G92 E0
G1 F2100 E-2
;LAYER_COUNT:20
;LAYER:0
M107
M204 S5000
G1 F600 Z2.2
G0 F3600 X171.749 Y36.932 Z2.2
;TYPE:SKIRT
G1 F600 Z0.2
G1 F2100 E0
G1 F4500 X171.886 Y36.411 E0.0224
G1 X172.094 Y35.718 E0.05248
G1 X172.317 Y35.138 E0.07831
G1 X172.825 Y34.15 E0.1245
G1 X173.077 Y33.74 E0.14451
G1 X174.787 Y31.371 E0.26598
G1 X176.321 Y29.121 E0.37919
G1 X177.836 Y26.759 E0.49586
G1 X179.216 Y24.466 E0.60712
G1 X180.561 Y22.079 E0.72103
G1 X182.234 Y18.874 E0.87134
G1 X182.435 Y18.472 E0.89003
G1 X182.736 Y17.983 E0.9139
G1 X183.056 Y17.553 E0.93619
G1 X183.459 Y17.091 E0.96168
G1 X184.069 Y16.615 E0.99384
G1 X184.573 Y16.282 E1.01896
G1 X185.295 Y15.973 E1.05161
G1 X185.958 Y15.763 E1.08052
G1 X188.189 Y15.324 E1.17506
G1 X190.805 Y14.734 E1.28655
G1 X193.505 Y14.041 E1.40244
G1 X196.095 Y13.299 E1.51445
G1 X198.743 Y12.458 E1.62996
G1 X201.323 Y11.558 E1.74357
G1 X203.867 Y10.589 E1.85675
G1 X206.403 Y9.54 E1.97084
G1 X209.339 Y8.219 E2.10469
G1 X210.317 Y7.766 E2.14951
G1 X211.276 Y7.385 E2.19241
G1 X212.1 Y7.074 E2.22902
G1 X212.832 Y6.816 E2.26129
G1 X213.868 Y6.511 E2.30619
G1 X214.681 Y6.286 E2.34126
G1 X215.423 Y6.1 E2.37307
G1 X216.488 Y5.889 E2.4182
G1 X217.351 Y5.736 E2.45464
G1 X218.095 Y5.621 E2.48594
G1 X219.119 Y5.516 E2.52874
G1 X219.986 Y5.443 E2.56491
G1 X220.793 Y5.393 E2.59853
G1 X221.791 Y5.384 E2.64002
G1 X222.697 Y5.391 E2.67769
G1 X223.479 Y5.415 E2.71022
G1 X224.531 Y5.502 E2.7541
G1 X225.298 Y5.579 E2.78615
G1 X226.176 Y5.686 E2.82292
G1 X227.213 Y5.87 E2.86671
G1 X228.674 Y6.163 E2.92866
G1 X229.902 Y6.501 E2.98161
G1 X231.32 Y6.928 E3.04318
G1 X232.371 Y7.324 E3.08988
G1 X233.153 Y7.633 E3.12484
G1 X234.77 Y8.301 E3.19757
G1 X237.377 Y9.333 E3.31414
G1 X239.936 Y10.264 E3.42736
G1 X242.512 Y11.12 E3.54021
G1 X245.159 Y11.917 E3.65514
G1 X247.77 Y12.622 E3.76758
G1 X250.464 Y13.27 E3.88278
G1 X253.13 Y13.83 E3.99604
G1 X255.825 Y14.319 E4.10991
G1 X258.509 Y14.728 E4.22279
G1 X261.24 Y15.064 E4.33719
G1 X263.975 Y15.323 E4.4514
G1 X266.687 Y15.502 E4.5644
G1 X269.437 Y15.607 E4.67882
G1 X271.757 Y15.634 E4.77528
G1 X281.955 Y15.634 E5.19926
G1 X282.653 Y15.644 E5.22828
G1 X283.583 Y15.724 E5.26709
G1 X284.447 Y15.953 E5.30425
G1 X285.175 Y16.248 E5.33691
G1 X285.834 Y16.629 E5.36856
G1 X286.375 Y17.034 E5.39665
G1 X286.838 Y17.442 E5.42231
G1 X287.405 Y18.169 E5.46064
G1 X287.739 Y18.674 E5.48581
G1 X288.095 Y19.51 E5.52359
G1 X288.288 Y20.086 E5.54884
G1 X288.421 Y21.009 E5.58762
G1 X288.463 Y21.765 E5.61909
G1 X288.465 Y151.347 E11.00649
G1 X288.455 Y152.053 E11.03584
G1 X288.429 Y152.625 E11.05965
G1 X288.311 Y154.114 E11.12175
G1 X288.045 Y155.403 E11.17647
G1 X287.873 Y156.147 E11.20822
G1 X287.658 Y156.814 E11.23735
G1 X287.389 Y157.559 E11.27028
G1 X286.954 Y158.549 E11.31524
G1 X286.397 Y159.589 E11.36429
G1 X285.871 Y160.407 E11.40472
G1 X285.415 Y161.035 E11.43699
G1 X285.071 Y161.472 E11.46011
G1 X284.414 Y162.222 E11.50156
G1 X283.997 Y162.65 E11.52641
G1 X283.278 Y163.296 E11.56659
G1 X282.47 Y163.978 E11.61055
G1 X281.616 Y164.544 E11.65315
G1 X280.835 Y165.033 E11.69146
G1 X280.226 Y165.36 E11.72019
G1 X279.46 Y165.726 E11.75549
G1 X278.646 Y166.046 E11.79185
G1 X278.086 Y166.239 E11.81648
G1 X277.31 Y166.473 E11.85018
G1 X276.464 Y166.663 E11.88622
G1 X275.58 Y166.809 E11.92348
G1 X275.014 Y166.876 E11.94717
G1 X273.956 Y166.947 E11.99126
G1 X273.297 Y166.968 E12.01867
G1 X197.456 Y166.97 E15.17177
G1 X196.424 Y166.953 E15.21468
G1 X194.68 Y166.815 E15.28742
G1 X193.54 Y166.581 E15.3358
G1 X192.627 Y166.369 E15.37477
G1 X191.772 Y166.096 E15.41208
G1 X191.029 Y165.801 E15.44532
G1 X190.186 Y165.422 E15.48375
G1 X189.469 Y165.041 E15.5175
G1 X188.966 Y164.745 E15.54177
G1 X188.533 Y164.469 E15.56312
G1 X187.786 Y163.934 E15.60132
G1 X187.349 Y163.589 E15.62446
G1 X186.545 Y162.886 E15.66887
G1 X186.15 Y162.499 E15.69186
G1 X185.532 Y161.81 E15.73034
G1 X184.821 Y160.97 E15.77609
G1 X184.192 Y160.016 E15.8236
G1 X183.7 Y159.225 E15.86233
G1 X183.412 Y158.669 E15.88836
G1 X183.06 Y157.928 E15.92247
G1 X182.617 Y156.764 E15.97425
G1 X182.332 Y155.822 E16.01516
G1 X182.144 Y154.988 E16.05071
G1 X182.004 Y154.151 E16.08599
G1 X181.922 Y153.483 E16.11397
G1 X181.865 Y152.637 E16.14922
G1 X181.838 Y151.929 E16.17868
G1 X181.833 Y115.943 E17.6748
G1 X181.793 Y113.147 E17.79106
G1 X181.678 Y110.434 E17.90395
G1 X181.483 Y107.685 E18.01853
G1 X181.217 Y104.992 E18.13104
G1 X180.867 Y102.26 E18.24555
G1 X180.439 Y99.537 E18.36015
G1 X179.946 Y96.887 E18.47221
G1 X179.371 Y94.203 E18.58633
G1 X178.718 Y91.547 E18.70004
G1 X177.99 Y88.9 E18.81418
G1 X177.187 Y86.279 E18.92815
G1 X176.306 Y83.666 E19.04279
G1 X175.367 Y81.122 E19.15553
G1 X174.341 Y78.565 E19.27008
G1 X173.263 Y76.089 E19.38235
G1 X172.161 Y73.724 E19.49083
G1 X171.937 Y72.986 E19.52289
G1 X171.76 Y72.329 E19.55118
G1 X171.642 Y71.725 E19.57677
G1 X171.562 Y70.727 E19.61839
G1 X171.533 Y69.455 E19.67129
G1 X171.533 Y39.523 E20.91572
G1 X171.55 Y38.723 E20.94899
G1 X171.643 Y37.513 E20.99944
G1 X171.749 Y36.932 E21.02399
G1 F2100 E19.02399
;MESH:Plate Bottom - Acrylic.stl(1)
G0 F3600 X175.202 Y38.875
G0 X179.459 Y67.088
G0 X179.739 Y68.319
G0 X185.845 Y85.043
G0 X185.21 Y85.176
;TYPE:WALL-OUTER
G1 F2100 E21.02399
G1 F4500 X185.334 Y86.936 E21.09735
G1 X185.333 Y152.003 E23.80252
G1 X185.388 Y153.103 E23.84831
G1 X185.544 Y154.194 E23.89413
G1 X185.746 Y155.049 E23.93065
G1 X186.013 Y155.89 E23.96734
G1 X186.346 Y156.712 E24.00421
G1 X186.731 Y157.49 E24.0403
G1 X187.622 Y158.878 E24.10887
G1 X188.693 Y160.115 E24.1769
G1 X189.503 Y160.85 E24.22237
G1 X190.385 Y161.509 E24.26815
G1 X191.134 Y161.972 E24.30476
G1 X191.923 Y162.381 E24.34171
G1 X192.725 Y162.721 E24.37792
G1 X193.562 Y163.003 E24.41464
G1 X195.164 Y163.35 E24.48279
G1 X196.808 Y163.47 E24.55132
G1 X273.495 Y163.47 E27.7396
G1 X274.599 Y163.416 E27.78555
G1 X275.697 Y163.257 E27.83168
G1 X276.546 Y163.057 E27.86794
G1 X277.386 Y162.791 E27.90457
G1 X278.207 Y162.457 E27.94142
G1 X278.985 Y162.072 E27.97751
G1 X280.376 Y161.179 E28.04623
G1 X281.614 Y160.106 E28.11434
G1 X282.345 Y159.3 E28.15958
G1 X283.009 Y158.412 E28.20568
G1 X283.471 Y157.663 E28.24227
G1 X283.876 Y156.881 E28.27888
G1 X284.216 Y156.078 E28.31514
G1 X284.498 Y155.24 E28.3519
G1 X284.847 Y153.633 E28.42027
G1 X284.965 Y151.996 E28.4885
G1 X284.965 Y21.507 E33.9136
G1 X284.883 Y20.876 E33.94006
G1 X284.647 Y20.31 E33.96555
G1 X284.275 Y19.825 E33.99096
G1 X283.789 Y19.452 E34.01644
G1 X283.223 Y19.217 E34.04191
G1 X282.592 Y19.134 E34.06837
G1 X243.544 Y19.133 E35.6918
G1 X243.058 Y19.072 E35.71217
G1 X242.613 Y18.917 E35.73176
G1 X242.093 Y18.598 E35.75712
G1 X240.25 Y16.543 E35.87188
G1 X238.5 Y14.923 E35.97103
G1 X236.615 Y13.477 E36.0698
G1 X234.604 Y12.21 E36.16862
G1 X232.492 Y11.138 E36.26709
G1 X230.274 Y10.259 E36.36628
G1 X227.998 Y9.591 E36.4649
G1 X225.669 Y9.136 E36.56355
G1 X223.297 Y8.896 E36.66267
G1 X220.931 Y8.878 E36.76104
G1 X218.554 Y9.078 E36.86022
G1 X216.214 Y9.494 E36.95903
G1 X213.931 Y10.124 E37.05749
G1 X211.7 Y10.966 E37.15663
G1 X209.563 Y12.007 E37.25546
G1 X207.539 Y13.236 E37.35391
G1 X205.63 Y14.653 E37.45275
G1 X203.853 Y16.245 E37.55194
G1 X202.223 Y18.002 E37.65158
G1 X201.729 Y18.468 E37.67981
G1 X201.107 Y18.841 E37.70997
G1 X200.456 Y19.059 E37.73851
G1 X199.779 Y19.134 E37.76683
G1 X187.106 Y19.134 E38.29371
G1 X186.632 Y19.196 E38.31359
G1 X186.209 Y19.372 E38.33263
G1 X185.848 Y19.649 E38.35155
G1 X185.571 Y20.01 E38.37047
G1 X185.396 Y20.432 E38.38946
G1 X185.333 Y20.907 E38.40938
G1 X185.333 Y22.292 E38.46697
G1 X185.214 Y24.012 E38.53865
G1 X184.845 Y25.757 E38.6128
G1 X184.257 Y27.382 E38.68465
G1 X183.434 Y28.943 E38.75801
G1 X182.397 Y30.381 E38.83172
G1 X181.192 Y31.637 E38.90408
G1 X179.81 Y32.727 E38.97726
G1 X178.288 Y33.62 E39.05063
G1 X177.364 Y34.188 E39.09572
G1 X176.572 Y34.909 E39.14025
G1 X175.912 Y35.776 E39.18555
G1 X175.432 Y36.743 E39.23043
G1 X175.136 Y37.774 E39.27503
G1 X175.033 Y38.875 E39.321
G1 X175.034 Y70.351 E40.62962
G1 X175.136 Y71.443 E40.67522
G1 X175.432 Y72.476 E40.7199
G1 X175.912 Y73.443 E40.76478
G1 X176.572 Y74.31 E40.81008
G1 X177.362 Y75.029 E40.85449
G1 X178.332 Y75.625 E40.90182
G1 X179.818 Y76.498 E40.97348
G1 X181.189 Y77.58 E41.04609
G1 X182.394 Y78.834 E41.11839
G1 X183.422 Y80.256 E41.19135
G1 X184.257 Y81.836 E41.26564
G1 X184.845 Y83.462 E41.33753
G1 X185.21 Y85.176 E41.41039
G0 F3600 X185.224 Y85.375
G1 F2100 E39.41039
G0 F3600 X185.873 Y85.331
G0 X179.806 Y68.608
G0 X179.459 Y67.088
G0 X179.344 Y65.55
G0 X179.378 Y38.52
G0 X179.672 Y37.906
G0 X189.659 Y26.993
G0 X190.71 Y25.955
G0 X191.899 Y25.076
G0 X193.199 Y24.373
G0 X212.623 Y15.28
G0 X214.707 Y14.412
G0 X216.87 Y13.768
G0 X219.088 Y13.354
G0 X221.339 Y13.176
G0 X223.596 Y13.236
G0 X225.832 Y13.531
G0 X228.027 Y14.061
G0 X230.153 Y14.82
G0 X232.188 Y15.797
G0 X234.108 Y16.983
G0 X235.894 Y18.364
G0 X262.341 Y23.532
G0 X263.078 Y23.795
G0 X263.737 Y24.216
G0 X264.284 Y24.777
G0 X264.691 Y25.447
G0 X264.934 Y26.191
G0 X265.004 Y26.97
G0 X264.899 Y27.72
G0 X262.599 Y37.529
G0 X262.443 Y39.992
G0 X262.736 Y39.449
G1 F2100 E41.41039
G1 F3265.6 X262.664 Y38.387 E41.47137
G1 F3504.7 X262.809 Y37.259 E41.53208
G1 F3429.9 X263.118 Y36.292 E41.58745
G1 F3839.6 X263.485 Y35.852 E41.61537
G1 F4500 X263.784 Y35.376 E41.63874
G1 X264.553 Y34.604 E41.68404
G1 X265.469 Y34.024 E41.72912
G1 X266.497 Y33.665 E41.77439
G1 X267.557 Y33.547 E41.81873
G1 X268.652 Y33.666 E41.86452
G1 X269.668 Y34.018 E41.90923
G1 X270.592 Y34.6 E41.95463
G1 X271.359 Y35.363 E41.99961
G1 X271.936 Y36.275 E42.04448
G1 X272.297 Y37.312 E42.09013
G1 X272.417 Y38.405 E42.13584
G1 X272.295 Y39.466 E42.18024
G1 X271.953 Y40.462 E42.22403
G1 X271.383 Y41.376 E42.26881
G1 X270.583 Y42.181 E42.31599
G1 X269.669 Y42.755 E42.36087
G1 X268.642 Y43.109 E42.40603
G1 X267.575 Y43.228 E42.45066
G1 X266.499 Y43.107 E42.49568
G1 X265.469 Y42.746 E42.54106
G1 X264.556 Y42.169 E42.58596
G1 X263.792 Y41.407 E42.63082
G1 F4437.9 X263.215 Y40.495 E42.67632
G1 F4302.1 X262.909 Y39.663 E42.71487
G1 F3560.1 X262.736 Y39.449 E42.72933
G0 F3600 X262.723 Y39.25
G0 X262.443 Y39.992
G0 X262.741 Y35.446
G0 X264.42 Y29.579
G0 X264.899 Y27.72
G0 X265.004 Y26.97
G0 X264.934 Y26.191
G0 X264.691 Y25.447
G0 X264.284 Y24.777
G0 X263.737 Y24.216
G0 X263.078 Y23.795
G0 X262.341 Y23.532
G0 X235.894 Y18.364
G0 X234.108 Y16.983
G0 X232.188 Y15.797
G0 X230.153 Y14.82
G0 X228.027 Y14.061
G0 X225.832 Y13.531
G0 X223.596 Y13.236
G0 X221.339 Y13.176
G0 X219.088 Y13.354
G0 X216.87 Y13.768
G0 X215.119 Y14.289
G0 X201.379 Y19.433
G0 X201.332 Y19.293
;TYPE:WALL-INNER
G1 F4500 X200.564 Y19.547 E42.76296
G1 X199.816 Y19.633 E42.79426
G1 X187.139 Y19.634 E43.32131
G1 X186.762 Y19.683 E43.33712
G1 X186.461 Y19.808 E43.35067
G1 X186.205 Y20.005 E43.3641
G1 X186.008 Y20.262 E43.37756
G1 X185.883 Y20.562 E43.39107
G1 X185.833 Y20.94 E43.40693
G1 X185.832 Y22.326 E43.46455
G1 X185.71 Y24.095 E43.53827
G1 X185.331 Y25.882 E43.61422
G1 X184.709 Y27.601 E43.69022
G1 X183.856 Y29.217 E43.76619
G1 X182.774 Y30.711 E43.84288
G1 X181.53 Y32.006 E43.91754
G1 X180.104 Y33.132 E43.99308
G1 X178.55 Y34.046 E44.06803
G1 X177.666 Y34.589 E44.11117
G1 X176.942 Y35.248 E44.15187
G1 X176.339 Y36.041 E44.19329
G1 X175.9 Y36.925 E44.23432
G1 X175.63 Y37.867 E44.27506
G1 X175.533 Y38.898 E44.31812
G1 X175.534 Y70.327 E45.62478
G1 X175.63 Y71.35 E45.6675
G1 X175.9 Y72.294 E45.70832
G1 X176.339 Y73.178 E45.74936
G1 X176.942 Y73.97 E45.79074
G1 X177.664 Y74.627 E45.83133
G1 X178.585 Y75.193 E45.87627
G1 X180.083 Y76.07 E45.94844
G1 X181.522 Y77.206 E46.02466
G1 X182.764 Y78.496 E46.09911
G1 X183.856 Y80.003 E46.17648
G1 X184.71 Y81.619 E46.25247
G1 X185.334 Y83.344 E46.32874
G1 X185.71 Y85.123 E46.40433
G1 X185.834 Y86.931 E46.47968
G1 X185.833 Y151.991 E49.18456
G1 X185.886 Y153.055 E49.22885
G1 X186.036 Y154.101 E49.27278
G1 X186.228 Y154.916 E49.30759
G1 X186.484 Y155.72 E49.34267
G1 X186.802 Y156.507 E49.37796
G1 X187.167 Y157.243 E49.41212
G1 X188.024 Y158.578 E49.47807
G1 X189.051 Y159.765 E49.54333
G1 X189.821 Y160.464 E49.58657
G1 X190.667 Y161.095 E49.63045
G1 X191.381 Y161.537 E49.66536
G1 X192.136 Y161.928 E49.70071
G1 X192.903 Y162.253 E49.73534
G1 X193.695 Y162.52 E49.77009
G1 X195.236 Y162.854 E49.83564
G1 X196.826 Y162.97 E49.90192
G1 X273.483 Y162.97 E53.08895
G1 X274.551 Y162.918 E53.13341
G1 X275.603 Y162.765 E53.1776
G1 X276.413 Y162.575 E53.21219
G1 X277.216 Y162.32 E53.24722
G1 X278.001 Y162.001 E53.28245
G1 X278.738 Y161.636 E53.31664
G1 X280.076 Y160.777 E53.38275
G1 X281.264 Y159.748 E53.44809
G1 X281.959 Y158.982 E53.49109
G1 X282.595 Y158.13 E53.53529
G1 X283.035 Y157.416 E53.57016
G1 X283.423 Y156.668 E53.60519
G1 X283.748 Y155.9 E53.63987
G1 X284.015 Y155.106 E53.67469
G1 X284.351 Y153.561 E53.74043
G1 X284.465 Y151.978 E53.80641
G1 X284.465 Y21.539 E59.22944
G1 X284.396 Y21.006 E59.25178
G1 X284.211 Y20.562 E59.27178
G1 X283.919 Y20.181 E59.29173
G1 X283.537 Y19.888 E59.31175
G1 X283.093 Y19.704 E59.33173
G1 X282.56 Y19.634 E59.35408
G1 X243.488 Y19.63 E60.97851
G1 X242.896 Y19.545 E61.00337
G1 X242.392 Y19.365 E61.02562
G1 X241.776 Y18.989 E61.05563
G1 X239.894 Y16.894 E61.17271
G1 X238.177 Y15.305 E61.26997
G1 X236.329 Y13.888 E61.36679
G1 X234.357 Y12.645 E61.4637
G1 X232.286 Y11.594 E61.56026
G1 X230.111 Y10.733 E61.65751
G1 X227.88 Y10.077 E61.75419
G1 X225.596 Y9.632 E61.85094
G1 X223.27 Y9.396 E61.94814
G1 X220.95 Y9.378 E62.04459
G1 X218.619 Y9.574 E62.14185
G1 X216.324 Y9.982 E62.23876
G1 X214.086 Y10.6 E62.33529
G1 X211.898 Y11.426 E62.43252
G1 X209.803 Y12.447 E62.52941
G1 X207.819 Y13.652 E62.62592
G1 X205.946 Y15.041 E62.72287
G1 X204.204 Y16.602 E62.82011
G1 X202.588 Y18.345 E62.91893
G1 X202.033 Y18.866 E62.95058
G1 X201.332 Y19.293 E62.98471
G0 F3600 X201.379 Y19.433
G0 X191.684 Y24.737
G0 X190.449 Y25.651
G0 X189.357 Y26.729
G0 X179.355 Y37.657
G0 X179.127 Y38.022
G0 X178.986 Y38.432
G0 X178.944 Y65.565
G0 X179.063 Y67.148
G0 X179.386 Y68.568
G0 X183.167 Y78.192
G1 F4500 X184.288 Y79.745 E63.06434
G1 X185.168 Y81.415 E63.14282
G1 X185.814 Y83.2 E63.22174
G1 X186.204 Y85.042 E63.30002
G1 X186.334 Y86.926 E63.37853
G1 X186.335 Y152.021 E66.08487
G1 X186.385 Y153.007 E66.12591
G1 X186.528 Y154.008 E66.16795
G1 X186.711 Y154.782 E66.20102
G1 X186.955 Y155.55 E66.23452
G1 X187.259 Y156.301 E66.2682
G1 X187.603 Y156.996 E66.30044
G1 X188.426 Y158.277 E66.36375
G1 X189.409 Y159.415 E66.42627
G1 X190.139 Y160.078 E66.46727
G1 X190.948 Y160.681 E66.50921
G1 X191.628 Y161.101 E66.54244
G1 X192.349 Y161.475 E66.57621
G1 X193.081 Y161.785 E66.60926
G1 X193.829 Y162.038 E66.64209
G1 X195.307 Y162.358 E66.70496
G1 X196.844 Y162.47 E66.76903
G1 X273.5 Y162.469 E69.95602
G1 X274.503 Y162.42 E69.99777
G1 X275.51 Y162.273 E70.04008
G1 X276.281 Y162.092 E70.073
G1 X277.046 Y161.85 E70.10636
G1 X277.796 Y161.545 E70.14002
G1 X278.492 Y161.2 E70.17232
G1 X279.776 Y160.376 E70.23575
G1 X280.914 Y159.39 E70.29835
G1 X281.572 Y158.664 E70.33909
G1 X282.181 Y157.849 E70.38139
G1 X282.6 Y157.17 E70.41456
G1 X282.97 Y156.456 E70.44799
G1 X283.28 Y155.723 E70.48108
G1 X283.533 Y154.973 E70.51399
G1 X283.855 Y153.49 E70.57708
G1 X283.965 Y151.96 E70.64085
G1 X283.965 Y21.572 E76.06176
G1 X283.909 Y21.137 E76.07999
G1 X283.775 Y20.815 E76.09449
G1 X283.562 Y20.538 E76.10902
G1 X283.285 Y20.325 E76.12355
G1 X282.962 Y20.191 E76.13808
G1 X282.527 Y20.134 E76.15632
G1 X243.573 Y20.134 E77.77584
G1 X242.861 Y20.065 E77.80558
